public/assets/images/feature/08.svg

<svg width="60" height="60" viewBox="0 0 60 60" fill="none" xmlns="http://www.w3.org/2000/svg">
<path d="M35.5538 50.42H34.8319V49.6991C34.8319 49.4994 34.7559 49.325 34.65 49.1731C34.4822 48.9284 34.215 48.7578 33.8906 48.7578C33.375 48.7578 32.9531 49.1797 32.9531 49.6953C32.9531 49.7019 32.9569 49.7066 32.9569 49.7131V51.3566C32.9569 51.875 33.3769 52.2941 33.8944 52.2941H35.5538C36.0713 52.2941 36.4913 51.875 36.4913 51.3566C36.4913 50.8381 36.0713 50.4191 35.5538 50.4191V50.42Z" fill="#0F62FE"/>
<path d="M33.8906 38.8695C34.4062 38.8695 34.8281 38.4477 34.8281 37.932V34.0039C34.8281 33.4883 34.4062 33.0664 33.8906 33.0664C33.375 33.0664 32.9531 33.4883 32.9531 34.0039V37.932C32.9531 38.4477 33.375 38.8695 33.8906 38.8695Z" fill="#0F62FE"/>
<path d="M32.9531 45.7797C32.9531 46.2953 33.375 46.7172 33.8906 46.7172C34.4062 46.7172 34.8281 46.2953 34.8281 45.7797V41.8516C34.8281 41.3359 34.4062 40.9141 33.8906 40.9141C33.375 40.9141 32.9531 41.3359 32.9531 41.8516V45.7797Z" fill="#0F62FE"/>
<path d="M35.9523 27.5858C35.8914 27.5567 35.8239 27.5455 35.7555 27.5295C35.688 27.5145 35.6242 27.4883 35.552 27.4883C35.4798 27.4883 35.5502 27.4883 35.5502 27.4883H35.5483H33.8945C33.377 27.4883 32.957 27.9083 32.957 28.4258V30.0852C32.957 30.6027 33.377 31.0227 33.8945 31.0227C34.412 31.0227 34.832 30.6027 34.832 30.0852V29.3633H35.5539C36.0714 29.3633 36.4914 28.9433 36.4914 28.4258C36.4914 28.0527 36.2692 27.7367 35.9533 27.5858H35.9523Z" fill="#0F62FE"/>
<path d="M40.4807 27.4883H38.8223C38.3048 27.4883 37.8848 27.9083 37.8848 28.4258C37.8848 28.9433 38.3048 29.3633 38.8223 29.3633H39.5432V30.0852C39.5432 30.6027 39.9632 31.0227 40.4807 31.0227C40.9982 31.0227 41.4182 30.6027 41.4182 30.0852V28.4258C41.4182 27.9083 40.9982 27.4883 40.4807 27.4883Z" fill="#0F62FE"/>
<path d="M40.4805 40.9141C39.9648 40.9141 39.543 41.3359 39.543 41.8516V45.7797C39.543 46.2953 39.9648 46.7172 40.4805 46.7172C40.9961 46.7172 41.418 46.2953 41.418 45.7797V41.8516C41.418 41.3359 40.9961 40.9141 40.4805 40.9141Z" fill="#0F62FE"/>
<path d="M40.4805 33.0664C39.9648 33.0664 39.543 33.4883 39.543 34.0039V37.932C39.543 38.4477 39.9648 38.8695 40.4805 38.8695C40.9961 38.8695 41.418 38.4477 41.418 37.932V34.0039C41.418 33.4883 40.9961 33.0664 40.4805 33.0664Z" fill="#0F62FE"/>
<path d="M40.4816 48.7578C39.966 48.7578 39.5441 49.1797 39.5441 49.6953V49.6972C39.5441 49.6972 39.5441 49.6981 39.5441 49.6991V50.42H38.8316C38.8316 50.42 38.826 50.4181 38.8223 50.4181C38.3066 50.4181 37.8848 50.8391 37.8848 51.3556C37.8848 51.4841 37.911 51.6078 37.9588 51.7194C38.1004 52.0569 38.4341 52.295 38.8232 52.295H40.4816C40.9991 52.295 41.4191 51.8759 41.4191 51.3575V49.6991C41.4191 49.6991 41.4191 49.6981 41.4191 49.6972C41.4191 49.6963 41.4191 49.6963 41.4191 49.6953C41.4191 49.1797 40.9973 48.7578 40.4816 48.7578Z" fill="#0F62FE"/>
<path d="M26.1064 24.1719H19.5195C19.002 24.1719 18.582 24.5919 18.582 25.1094V51.3594C18.582 51.8778 19.002 52.2969 19.5195 52.2969H26.1064C26.6239 52.2969 27.0439 51.8778 27.0439 51.3594V25.1094C27.0439 24.5919 26.6239 24.1719 26.1064 24.1719ZM25.1689 50.4219H20.457V26.0469H25.1689V50.4219Z" fill="#0F62FE"/>
<path d="M6.80297 50.4191H6.08203V49.7084C6.08203 49.7037 6.08484 49.7 6.08484 49.6953C6.08484 49.1797 5.66297 48.7578 5.14734 48.7578C4.75734 48.7578 4.43203 48.9913 4.28859 49.3222C4.23797 49.4375 4.20703 49.5641 4.20703 49.6991V51.3575C4.20703 51.8759 4.62703 52.295 5.14453 52.295H6.80297C7.32047 52.295 7.74047 51.8759 7.74047 51.3575C7.74047 50.8391 7.32047 50.4191 6.80297 50.4191Z" fill="#0F62FE"/>
<path d="M5.14648 46.6798C5.66211 46.6798 6.08398 46.258 6.08398 45.7423V41.7852C6.08398 41.2695 5.66211 40.8477 5.14648 40.8477C4.63086 40.8477 4.20898 41.2695 4.20898 41.7852V45.7423C4.20898 46.258 4.63086 46.6798 5.14648 46.6798Z" fill="#0F62FE"/>
<path d="M6.80297 35.2266H5.14453C4.62703 35.2266 4.20703 35.6456 4.20703 36.1641V37.8234C4.20703 38.3419 4.62703 38.7609 5.14453 38.7609C5.66203 38.7609 6.08203 38.3419 6.08203 37.8234V37.1016H6.78422C6.78891 37.1016 6.79266 37.1044 6.79734 37.1044C7.04109 37.1044 7.25484 37.0069 7.41984 36.8588C7.61297 36.6872 7.74047 36.4434 7.74047 36.165C7.74047 35.6466 7.32047 35.2266 6.80297 35.2266Z" fill="#0F62FE"/>
<path d="M11.7316 35.2266H10.0723C9.55477 35.2266 9.13477 35.6456 9.13477 36.1641C9.13477 36.6825 9.55477 37.1016 10.0723 37.1016H10.7941V37.8122C10.7941 37.8169 10.7913 37.8206 10.7913 37.8262C10.7913 38.3419 11.2132 38.7637 11.7288 38.7637C11.8676 38.7637 11.9979 38.7291 12.117 38.6738C12.4413 38.5266 12.6691 38.2031 12.6691 37.8234V36.1641C12.6691 35.6456 12.2491 35.2266 11.7316 35.2266Z" fill="#0F62FE"/>
<path d="M11.7277 48.7578C11.2121 48.7578 10.7902 49.1797 10.7902 49.6953C10.7902 49.7 10.793 49.7037 10.793 49.7084V50.4191H10.0777C10.0777 50.4191 10.0721 50.4172 10.0684 50.4172C9.55273 50.4172 9.13086 50.8381 9.13086 51.3547C9.13086 51.6125 9.2368 51.8469 9.40742 52.0175C9.57711 52.1881 9.81242 52.2941 10.0721 52.2941H11.7315C12.249 52.2941 12.669 51.875 12.669 51.3566V49.6981C12.669 49.4375 12.5621 49.2031 12.3915 49.0334C12.2218 48.8628 11.9865 48.7578 11.7277 48.7578Z" fill="#0F62FE"/>
<path d="M11.7285 46.6798C12.2441 46.6798 12.666 46.258 12.666 45.7423V41.7852C12.666 41.2695 12.2441 40.8477 11.7285 40.8477C11.2129 40.8477 10.791 41.2695 10.791 41.7852V45.7423C10.791 46.258 11.2129 46.6798 11.7285 46.6798Z" fill="#0F62FE"/>
<path d="M54.8564 17.5352H48.2695C47.752 17.5352 47.332 17.9552 47.332 18.4727V51.3573C47.332 51.8758 47.752 52.2948 48.2695 52.2948H54.8564C55.3739 52.2948 55.7939 51.8758 55.7939 51.3573V18.4727C55.7939 17.9552 55.3739 17.5352 54.8564 17.5352ZM53.9189 50.4198H49.207V19.4102H53.9189V50.4198Z" fill="#0F62FE"/>
<path d="M53.129 13.1594C53.129 13.6769 53.549 14.0969 54.0665 14.0969C54.584 14.0969 55.004 13.6769 55.004 13.1594V8.64062C55.004 8.12313 54.584 7.70312 54.0665 7.70312H49.6162C49.0987 7.70312 48.6787 8.12313 48.6787 8.64062C48.6787 9.15813 49.0987 9.57812 49.6162 9.57812H51.84L37.0228 24.6822L23.2734 16.9113C22.9172 16.7097 22.4719 16.7631 22.1728 17.0425L7.79811 30.4562C7.41936 30.8087 7.39873 31.4022 7.75217 31.7819C7.93686 31.9797 8.18623 32.0791 8.43748 32.0791C8.66717 32.0791 8.89592 31.9956 9.07686 31.8269L22.949 18.8819L36.7265 26.6687C37.0978 26.8769 37.56 26.8112 37.8572 26.5094L53.129 10.9422V13.1594Z" fill="#0F62FE"/>
<path d="M36.3694 20.8803C39.6103 20.8803 42.2475 18.2441 42.2475 15.0022C42.2475 11.7603 39.6112 9.125 36.3694 9.125C33.1275 9.125 30.4922 11.7613 30.4922 15.0022C30.4922 18.2431 33.1284 20.8803 36.3694 20.8803ZM36.3694 11.0009C38.5762 11.0009 40.3725 12.7962 40.3725 15.0031C40.3725 17.21 38.5762 19.0063 36.3694 19.0063C34.1625 19.0063 32.3672 17.21 32.3672 15.0031C32.3672 12.7962 34.1625 11.0009 36.3694 11.0009Z" fill="#0F62FE"/>
<path d="M35.6629 15.604C35.8411 15.8262 36.1101 15.9556 36.3942 15.9556H38.4136C38.9311 15.9556 39.3511 15.5356 39.3511 15.0181C39.3511 14.5006 38.9311 14.0806 38.4136 14.0806H36.8442L35.8157 12.7971C35.4914 12.3921 34.9007 12.3274 34.4976 12.6518C34.0936 12.9753 34.0289 13.5659 34.3523 13.9699L35.662 15.6049L35.6629 15.604Z" fill="#0F62FE"/>
</svg>

<svg xmlns="http://www.w3.org/2000/svg" width="60" height="60" fill="none" viewBox="0 0 60 60"><path fill="#0f62fe" d="M35.554 50.42h-.722v-.72c0-.2-.076-.375-.182-.527a.92.92 0 0 0-.76-.415.94.94 0 0 0-.937.937c0 .007.004.012.004.018v1.644c0 .518.42.937.937.937h1.66a.937.937 0 1 0 0-1.875zM33.89 38.87a.94.94 0 0 0 .938-.938v-3.928a.94.94 0 0 0-.937-.938.94.94 0 0 0-.938.938v3.928a.94.94 0 0 0 .938.938m-.938 6.91a.94.94 0 0 0 .938.937.94.94 0 0 0 .937-.937v-3.928a.94.94 0 0 0-.937-.938.94.94 0 0 0-.938.938zm2.999-18.194c-.06-.03-.128-.04-.197-.056-.067-.015-.13-.042-.203-.042h-1.658a.94.94 0 0 0-.937.938v1.66a.938.938 0 0 0 1.875 0v-.723h.722a.932.932 0 0 0 .4-1.777zm4.528-.098h-1.658a.938.938 0 0 0 0 1.875h.721v.722a.938.938 0 0 0 1.875 0v-1.66a.94.94 0 0 0-.937-.937m-.001 13.426a.94.94 0 0 0-.937.938v3.928a.94.94 0 0 0 .938.937.94.94 0 0 0 .937-.937v-3.928a.94.94 0 0 0-.937-.938m-.001-7.848a.94.94 0 0 0-.937.938v3.928a.94.94 0 0 0 .938.938.94.94 0 0 0 .937-.938v-3.928a.94.94 0 0 0-.937-.938m.001 15.692a.94.94 0 0 0-.938.937v.725h-.712l-.01-.002a.94.94 0 0 0 .001 1.877h1.659c.517 0 .937-.42.937-.937v-1.663a.94.94 0 0 0-.937-.937M26.106 24.172H19.52a.94.94 0 0 0-.937.937v26.25c0 .519.42.938.938.938h6.586c.518 0 .938-.42.938-.938V25.11a.94.94 0 0 0-.938-.937m-.937 26.25h-4.712V26.047h4.712zM6.803 50.42h-.721v-.712l.003-.013a.94.94 0 0 0-.938-.937.93.93 0 0 0-.858.564.9.9 0 0 0-.082.377v1.659c0 .518.42.937.938.937h1.658a.937.937 0 1 0 0-1.876M5.146 46.68a.94.94 0 0 0 .938-.938v-3.957a.94.94 0 0 0-.938-.937.94.94 0 0 0-.937.937v3.957a.94.94 0 0 0 .937.938m1.657-11.453H5.145a.937.937 0 0 0-.938.937v1.66a.937.937 0 1 0 1.875 0v-.722h.702l.013.002a.93.93 0 0 0 .623-.245.93.93 0 0 0 .32-.694.94.94 0 0 0-.937-.938m4.929 0h-1.66a.937.937 0 1 0 0 1.875h.722v.71l-.003.014a.94.94 0 0 0 .938.938.9.9 0 0 0 .388-.09.93.93 0 0 0 .552-.85v-1.66a.937.937 0 0 0-.937-.937m-.004 13.531a.94.94 0 0 0-.938.937l.003.013v.711h-.715l-.01-.002a.936.936 0 0 0-.661 1.6c.17.171.405.277.665.277h1.66a.937.937 0 0 0 .937-.937v-1.659a.93.93 0 0 0-.277-.665.93.93 0 0 0-.664-.275m.001-2.078a.94.94 0 0 0 .937-.938v-3.957a.94.94 0 0 0-.937-.937.94.94 0 0 0-.938.937v3.957a.94.94 0 0 0 .938.938m43.127-29.145H48.27a.94.94 0 0 0-.937.938v32.884c0 .519.42.938.938.938h6.586a.937.937 0 0 0 .938-.938V18.473a.94.94 0 0 0-.938-.938M53.92 50.42h-4.712V19.41h4.712z"/><path fill="#0f62fe" d="M53.129 13.16a.938.938 0 0 0 1.875 0V8.64a.94.94 0 0 0-.937-.937h-4.45a.938.938 0 0 0 0 1.875h2.223L37.023 24.682l-13.75-7.77a.94.94 0 0 0-1.1.13L7.798 30.457a.938.938 0 1 0 1.279 1.37l13.872-12.944 13.778 7.787a.94.94 0 0 0 1.13-.16L53.13 10.942z"/><path fill="#0f62fe" d="M36.37 20.88a5.884 5.884 0 0 0 5.878-5.878 5.883 5.883 0 0 0-5.879-5.877 5.883 5.883 0 0 0-5.877 5.877 5.884 5.884 0 0 0 5.877 5.878m0-9.88a4.007 4.007 0 0 1 4.003 4.003 4.01 4.01 0 0 1-4.004 4.003 4.007 4.007 0 0 1-4.002-4.003 4.007 4.007 0 0 1 4.002-4.002"/><path fill="#0f62fe" d="M35.663 15.604a.94.94 0 0 0 .731.352h2.02a.938.938 0 0 0 0-1.875h-1.57l-1.028-1.284a.937.937 0 1 0-1.464 1.173z"/></svg>
